src/components/atoms/Icon/icons/twitter-large.svg

<?xml version="1.0" encoding="UTF-8"?>
<svg width="36px" height="36px" viewBox="0 0 36 36" version="1.1" xmlns="http://www.w3.org/2000/svg" xmlns:xlink="http://www.w3.org/1999/xlink">
    <!-- Generator: Sketch 53.2 (72643) - https://sketchapp.com -->
    <title>twitter</title>
    <desc>Created with Sketch.</desc>
    <defs>
        <rect id="path-1" x="0" y="0" width="24" height="24"></rect>
    </defs>
    <g id="twitter" stroke="none" stroke-width="1" fill="none" fill-rule="evenodd">
        <g id="twitter-copy" transform="translate(6.000000, 6.000000)">
            <mask id="mask-2" fill="currentColor">
                <use xlink:href="#path-1"></use>
            </mask>
            <g id="Mask" fill-rule="nonzero"></g>
            <path d="M7.547808,21.505088 C16.604736,21.505088 21.557664,14.001632 21.557664,7.495232 C21.557664,7.282016 21.553344,7.06976 21.543552,6.858656 C22.504896,6.163712 23.340672,5.296544 24,4.309184 C23.117664,4.701056 22.168224,4.965248 21.172224,5.084288 C22.188768,4.47488 22.969344,3.510272 23.337408,2.360576 C22.385856,2.924576 21.332448,3.33488 20.21088,3.55568 C19.31232,2.598656 18.032736,2 16.616736,2 C13.897248,2 11.691936,4.205216 11.691936,6.923648 C11.691936,7.310144 11.735232,7.685792 11.819712,8.046368 C7.72752,7.84064 4.098624,5.881184 1.6704,2.901824 C1.247136,3.629312 1.003488,4.47488 1.003488,5.376608 C1.003488,7.085024 1.872864,8.593088 3.194688,9.475328 C2.38704,9.450464 1.62816,9.228512 0.964608,8.859296 C0.963456,8.87984 0.963456,8.90048 0.963456,8.92208 C0.963456,11.307104 2.661024,13.297952 4.913856,13.74944 C4.500288,13.861952 4.06512,13.922624 3.61584,13.922624 C3.298656,13.922624 2.990112,13.891232 2.690208,13.833824 C3.316992,15.790112 5.134752,17.213696 7.290144,17.253824 C5.604576,18.574496 3.481632,19.3616 1.17456,19.3616 C0.777312,19.3616 0.385344,19.338848 0,19.293344 C2.1792,20.689856 4.766592,21.505088 7.547808,21.505088" id="Path" fill="currentColor" mask="url(#mask-2)"></path>
        </g>
    </g>
</svg>

<svg width="36" height="36" xmlns="http://www.w3.org/2000/svg" xmlns:xlink="http://www.w3.org/1999/xlink"><defs><path id="twitter-large-a" d="M0 0h24v24H0z"/></defs><g transform="translate(6 6)" fill="none" fill-rule="evenodd"><mask id="twitter-large-b" fill="currentColor"><use xlink:href="#twitter-large-a"/></mask><path d="M7.548 21.505c9.057 0 14.01-7.503 14.01-14.01 0-.213-.005-.425-.014-.636A10.017 10.017 0 0 0 24 4.309a9.829 9.829 0 0 1-2.828.775 4.94 4.94 0 0 0 2.165-2.723 9.865 9.865 0 0 1-3.126 1.195 4.925 4.925 0 0 0-8.391 4.49A13.98 13.98 0 0 1 1.67 2.902a4.907 4.907 0 0 0-.667 2.475 4.92 4.92 0 0 0 2.192 4.098 4.887 4.887 0 0 1-2.23-.616c-.002.02-.002.041-.002.063a4.926 4.926 0 0 0 3.95 4.827 4.938 4.938 0 0 1-2.223.085 4.93 4.93 0 0 0 4.6 3.42 9.88 9.88 0 0 1-6.115 2.108c-.398 0-.79-.023-1.175-.069a13.94 13.94 0 0 0 7.548 2.212" fill="currentColor" mask="url(#twitter-large-b)"/></g></svg>
